X: 37447
T: Sliabh Maol
R: reel
M: 4/4
K: Gmajor
G2BG DGBG|DGBG dBGB|AFDF ABcd|egfa gedB|
G2BG DGBG|dBGB d2ef|gefd ecAG|FDEF G4:|
|:g2bg dgbg|f2af dfaf|g2bg dgbg|faef gdBd|
g2bg dgbg|f2af dfaf|b2af gfed|bdefG4:|

